docs/images/icons/arrow_slider-white.svg

<svg width="7.778076" height="12.728027" viewBox="0 0 7.77808 12.728" fill="none" xmlns="http://www.w3.org/2000/svg" xmlns:xlink="http://www.w3.org/1999/xlink">
	<desc>
			Created with Pixso.
	</desc>
	<defs/>
	<path id="Vector" d="M4.94995 6.36401L0 1.41406L1.41406 0L7.77808 6.36401L1.41406 12.728L0 11.314L4.94995 6.36401Z" fill="#FFFFFF" fill-opacity="0.500000" fill-rule="nonzero"/>
	<path id="Vector" d="M4.24292 7.07104L0.707031 10.6069L0 11.314L0.706787 12.021L0.707031 12.021L1.41406 12.728L7.0708 7.07104L7.77808 6.36401L7.0708 5.65698L2.12109 0.707031L1.41406 0L0.707031 0.706787L0.706787 0.707031L0 1.41406L0.707031 2.12109L4.24292 5.65698L4.94995 6.36401L4.24292 7.07104Z" fill="#FFFFFF" fill-opacity="0.500000" fill-rule="evenodd"/>
</svg>

<svg width="7.778" height="12.728" fill="none" xmlns="http://www.w3.org/2000/svg"><path d="M4.95 6.364 0 1.414 1.414 0l6.364 6.364-6.364 6.364L0 11.314l4.95-4.95Z" fill="#FFF" fill-opacity=".5"/><path d="M4.243 7.071.707 10.607 0 11.314l.707.707.707.707 5.657-5.657.707-.707-.707-.707L2.12.707 1.414 0 .707.707 0 1.414l.707.707 3.536 3.536.707.707-.707.707Z" fill="#FFF" fill-opacity=".5" fill-rule="evenodd"/></svg>
